assets/svg/icon_channel_moderator.svg

<svg width="24" height="24" viewBox="0 0 24 24" fill="none" xmlns="http://www.w3.org/2000/svg">
<g id="icon/channel/moderator">
<g id="Vector">
<path fill-rule="evenodd" clip-rule="evenodd" d="M8.41493 4.79305C8.52096 3.7851 9.36267 3 10.3853 3H13.6147C14.6373 3 15.479 3.7851 15.5851 4.79305C16.2572 4.80692 16.8383 4.84215 17.3345 4.93453C18.0021 5.05881 18.5703 5.29558 19.0327 5.76415C19.5628 6.30145 19.7908 6.97795 19.8974 7.78142C20 8.55531 20 9.53928 20 10.76V15.0236C20 16.2444 20 17.2283 19.8974 18.0023C19.7908 18.8057 19.5628 19.4822 19.0327 20.0195C18.5025 20.5568 17.8351 20.7879 17.0423 20.8959C16.2787 21 15.3079 21 14.1034 21H9.89663C8.69215 21 7.7213 21 6.95773 20.8959C6.16497 20.7879 5.49749 20.5568 4.96735 20.0195C4.43722 19.4822 4.20921 18.8057 4.10262 18.0023C3.99997 17.2283 3.99998 16.2444 4 15.0236V10.76C3.99998 9.53928 3.99997 8.55531 4.10262 7.78142C4.20921 6.97795 4.43722 6.30145 4.96735 5.76415C5.42968 5.29558 5.99781 5.05881 6.66541 4.93453C7.16163 4.84215 7.74279 4.80692 8.41493 4.79305ZM8.41667 6.13238C7.78423 6.14607 7.29687 6.17833 6.90409 6.25146C6.40488 6.34439 6.11593 6.49362 5.90151 6.71093C5.65776 6.95798 5.49883 7.30484 5.41195 7.95983C5.3225 8.63408 5.3211 9.52772 5.3211 10.809V14.9747C5.3211 16.256 5.3225 17.1496 5.41195 17.8238C5.49883 18.4788 5.65776 18.8257 5.90151 19.0728C6.14527 19.3198 6.4875 19.4809 7.13376 19.5689C7.79902 19.6596 8.68073 19.661 9.94495 19.661H14.055C15.3193 19.661 16.201 19.6596 16.8663 19.5689C17.5125 19.4809 17.8547 19.3198 18.0985 19.0728C18.3423 18.8257 18.5012 18.4788 18.5881 17.8238C18.6775 17.1496 18.6789 16.256 18.6789 14.9747V10.809C18.6789 9.52772 18.6775 8.63408 18.5881 7.95983C18.5012 7.30484 18.3423 6.95798 18.0985 6.71093C17.884 6.49362 17.5952 6.34439 17.096 6.25146C16.7031 6.17833 16.2158 6.14607 15.5833 6.13238C15.4701 7.13266 14.6319 7.9095 13.6147 7.9095H10.3853C9.36807 7.9095 8.52984 7.13266 8.41667 6.13238ZM10.3853 4.33896C10.0205 4.33896 9.72477 4.63869 9.72477 5.00843V5.90107C9.72477 6.27081 10.0205 6.57055 10.3853 6.57055H13.6147C13.9795 6.57055 14.2752 6.27081 14.2752 5.90107V5.00843C14.2752 4.63869 13.9795 4.33896 13.6147 4.33896H10.3853Z" fill="#0166FF"/>
<path d="M15.09 11.5952C15.3568 11.343 15.3711 10.9193 15.1222 10.649C14.8733 10.3787 14.4554 10.3641 14.1887 10.6164L10.8648 13.7606L9.80564 12.7587C9.53895 12.5064 9.12095 12.521 8.87204 12.7914C8.62311 13.0617 8.63753 13.4853 8.90423 13.7376L10.414 15.1658C10.6678 15.4058 11.0617 15.4058 11.3154 15.1658L15.09 11.5952Z" fill="#0166FF"/>
</g>
</g>
</svg>

<svg xmlns="http://www.w3.org/2000/svg" width="24" height="24" fill="none"><g fill="#0166FF"><path fill-rule="evenodd" d="M8.415 4.793A1.99 1.99 0 0 1 10.385 3h3.23c1.022 0 1.864.785 1.97 1.793.672.014 1.253.05 1.75.142.667.124 1.235.36 1.698.83.53.536.758 1.213.864 2.016C20 8.555 20 9.54 20 10.76v4.264c0 1.22 0 2.204-.103 2.978-.106.804-.334 1.48-.864 2.018s-1.198.768-1.99.876c-.764.104-1.735.104-2.94.104H9.897c-1.205 0-2.176 0-2.94-.104-.792-.108-1.46-.34-1.99-.876-.53-.538-.758-1.214-.864-2.018C4 17.228 4 16.244 4 15.024V10.76c0-1.22 0-2.205.103-2.979.106-.803.334-1.48.864-2.017.463-.468 1.03-.705 1.698-.83.497-.092 1.078-.127 1.75-.141m.002 1.34c-.633.013-1.12.045-1.513.118-.5.093-.788.243-1.002.46-.244.247-.403.594-.49 1.249-.09.674-.09 1.568-.09 2.849v4.166c0 1.281 0 2.175.09 2.849.087.655.246 1.002.49 1.249.243.247.585.408 1.232.496.665.09 1.547.092 2.811.092h4.11c1.264 0 2.146-.001 2.811-.092.646-.088.989-.25 1.233-.496.243-.247.402-.594.49-1.25.088-.673.09-1.567.09-2.848v-4.166c0-1.281-.002-2.175-.09-2.85-.088-.654-.247-1.001-.49-1.248-.215-.217-.504-.367-1.003-.46-.393-.073-.88-.105-1.513-.119a1.99 1.99 0 0 1-1.968 1.778h-3.23a1.99 1.99 0 0 1-1.968-1.778m1.968-1.794c-.364 0-.66.3-.66.67V5.9c0 .37.296.67.66.67h3.23c.364 0 .66-.3.66-.67v-.893c0-.37-.296-.669-.66-.669z" clip-rule="evenodd"/><path d="M15.09 11.595a.676.676 0 0 0 .032-.946.654.654 0 0 0-.933-.033l-3.324 3.145-1.06-1.002a.654.654 0 0 0-.933.032.676.676 0 0 0 .032.947l1.51 1.428c.254.24.648.24.901 0z"/></g></svg>
